icons/resso.svg

<svg width="32" height="32" viewBox="0 0 32 32" fill="none" xmlns="http://www.w3.org/2000/svg">
<path d="M3.36627 28.6337C0.910867 26.1783 0 22.1783 0 16C0 9.82167 0.910867 5.82167 3.36627 3.36627C5.82167 0.910867 9.82167 0 16 0C22.1783 0 26.1783 0.910867 28.6337 3.36627C31.0891 5.82167 32 9.82167 32 16C32 22.1783 31.0891 26.1783 28.6337 28.6337C26.1783 31.0891 22.1783 32 16 32C9.82167 32 5.82167 31.0891 3.36627 28.6337Z" fill="#000039"/>
<path fill-rule="evenodd" clip-rule="evenodd" d="M23.1486 12.6406L14.1125 7.13779C11.4913 5.54159 8.13333 7.42831 8.13333 10.4972V14.6663C8.13333 14.8496 8.36511 14.9414 8.50054 14.8179C9.30596 14.0834 10.3295 13.6036 11.4187 13.4643C11.5212 13.4512 11.6 13.3653 11.6 13.262V10.9718C11.6 10.3997 12.2261 10.0479 12.7148 10.3455L20.9715 15.3736C21.4407 15.6594 21.4407 16.3406 20.9715 16.6263L18.5999 18.0705L14.1125 15.3378C11.4913 13.7416 8.13333 15.6283 8.13333 18.6972V21.5022C8.13333 24.5711 11.4913 26.4584 14.1125 24.8622L18.5999 22.1294L21.7339 24.0379C22.5515 24.5358 23.6179 24.2766 24.1158 23.459C24.6137 22.6414 24.3546 21.575 23.5369 21.0771L21.9325 20.1L23.1486 19.3594C25.6653 17.8268 25.6653 14.1732 23.1486 12.6406ZM11.6 21.0281V19.1718C11.6 18.5997 12.2261 18.2479 12.7148 18.5455L15.2674 20.1L12.7148 21.6545C12.2261 21.9521 11.6 21.6003 11.6 21.0281Z" fill="#FF005F"/>
<path fill-rule="evenodd" clip-rule="evenodd" d="M23.1486 12.6406L14.1125 7.13779C11.4913 5.54159 8.13333 7.42831 8.13333 10.4972V14.6663C8.13333 14.8496 8.36511 14.9414 8.50054 14.8179C9.30596 14.0834 10.3295 13.6036 11.4187 13.4643C11.5212 13.4512 11.6 13.3653 11.6 13.262V10.9718C11.6 10.3997 12.2261 10.0479 12.7148 10.3455L20.9715 15.3736C21.4407 15.6594 21.4407 16.3406 20.9715 16.6263L18.5999 18.0705L14.1125 15.3378C11.4913 13.7416 8.13333 15.6283 8.13333 18.6972V21.5022C8.13333 24.5711 11.4913 26.4584 14.1125 24.8622L18.5999 22.1294L21.7339 24.0379C22.5515 24.5358 23.6179 24.2766 24.1158 23.459C24.6137 22.6414 24.3546 21.575 23.5369 21.0771L21.9325 20.1L23.1486 19.3594C25.6653 17.8268 25.6653 14.1732 23.1486 12.6406ZM11.6 21.0281V19.1718C11.6 18.5997 12.2261 18.2479 12.7148 18.5455L15.2674 20.1L12.7148 21.6545C12.2261 21.9521 11.6 21.6003 11.6 21.0281Z" fill="url(#paint0_linear_120_93807)"/>
<defs>
<linearGradient id="paint0_linear_120_93807" x1="6.16667" y1="25.4332" x2="25.0332" y2="6.56658" gradientUnits="userSpaceOnUse">
<stop offset="0.458122" stop-color="#FF0061"/>
<stop offset="0.759773" stop-color="#FF505E"/>
</linearGradient>
</defs>
</svg>

<svg xmlns="http://www.w3.org/2000/svg" width="32" height="32" fill="none" viewBox="0 0 32 32">
  <path fill="#000039" d="M3.366 28.634C.911 26.178 0 22.178 0 16S.91 5.822 3.366 3.366C5.822.911 9.822 0 16 0s10.178.91 12.634 3.366C31.089 5.822 32 9.822 32 16s-.91 10.178-3.366 12.634C26.178 31.089 22.178 32 16 32s-10.178-.91-12.634-3.366Z"/>
  <path fill="#FF005F" fill-rule="evenodd" d="m23.148 12.64-9.036-5.502c-2.62-1.596-5.979.29-5.979 3.36v4.168c0 .184.232.275.368.152a5.355 5.355 0 0 1 2.918-1.354.206.206 0 0 0 .181-.202v-2.29a.733.733 0 0 1 1.115-.626l8.256 5.028c.47.285.47.967 0 1.252L18.6 18.071l-4.488-2.733c-2.62-1.596-5.979.29-5.979 3.36v2.804c0 3.07 3.358 4.957 5.98 3.36L18.6 22.13l3.134 1.908a1.733 1.733 0 1 0 1.803-2.96l-1.604-.978 1.215-.74c2.517-1.533 2.517-5.187 0-6.72ZM11.6 21.029v-1.856a.733.733 0 0 1 1.115-.626l2.552 1.554-2.552 1.555a.733.733 0 0 1-1.115-.627Z" clip-rule="evenodd"/>
  <path fill="url(#a)" fill-rule="evenodd" d="m23.148 12.64-9.036-5.502c-2.62-1.596-5.979.29-5.979 3.36v4.168c0 .184.232.275.368.152a5.355 5.355 0 0 1 2.918-1.354.206.206 0 0 0 .181-.202v-2.29a.733.733 0 0 1 1.115-.626l8.256 5.028c.47.285.47.967 0 1.252L18.6 18.071l-4.488-2.733c-2.62-1.596-5.979.29-5.979 3.36v2.804c0 3.07 3.358 4.957 5.98 3.36L18.6 22.13l3.134 1.908a1.733 1.733 0 1 0 1.803-2.96l-1.604-.978 1.215-.74c2.517-1.533 2.517-5.187 0-6.72ZM11.6 21.029v-1.856a.733.733 0 0 1 1.115-.626l2.552 1.554-2.552 1.555a.733.733 0 0 1-1.115-.627Z" clip-rule="evenodd"/>
  <defs>
    <linearGradient id="a" x1="6.167" x2="25.033" y1="25.433" y2="6.567" gradientUnits="userSpaceOnUse">
      <stop offset=".458" stop-color="#FF0061"/>
      <stop offset=".76" stop-color="#FF505E"/>
    </linearGradient>
  </defs>
</svg>
